assets/img/svg-logo-vikinger.svg

<svg width="43" height="61" viewBox="0 0 43 61" fill="none" xmlns="http://www.w3.org/2000/svg">
<g clip-path="url(#clip0_2_6)">
<path d="M41.3601 36.857C41.1487 36.7145 40.9942 36.638 40.9942 36.638L40.9866 36.5645C38.8237 34.9745 35.2447 33.8 35.2447 33.8C37.5577 33.8 39.1176 32.9555 40.4962 31.799C40.4226 31.7165 41.5462 30.8 41.5462 30.8C41.7652 18.4235 34.8307 11.6825 31.0446 8.79949C27.8151 15.146 25.7931 21.8 25.7931 21.8C25.4646 15.161 26.1577 9.69199 26.8432 5.79949C25.5682 5.12149 23.9092 4.75249 23.3992 3.49399C22.8876 2.23549 21.6126 0.799988 21.6126 0.799988L21.5901 0.820988L21.5676 0.799988C21.5676 0.799988 20.2927 2.23549 19.7826 3.49399C19.2726 4.75249 17.6152 5.12149 16.3401 5.79949C17.0257 9.69199 17.7171 15.161 17.3902 21.8C17.3902 21.8 15.3666 15.146 12.1386 8.79949C8.35115 11.6825 1.41665 18.4235 1.63565 30.8C1.63565 30.8 2.76065 31.7165 2.68715 31.799C4.06415 32.9555 5.62565 33.8 7.93715 33.8C7.93715 33.8 4.35665 34.9745 2.19365 36.566L2.18615 36.6395C2.18615 36.6395 2.03015 36.716 1.82015 36.8585C1.10015 37.454 0.61115 38.1005 0.59165 38.762C0.55715 39.5435 0.98615 40.5335 2.44115 41.7215C2.44115 41.7215 2.64515 55.61 16.9762 58.6565C16.9762 58.6565 17.2941 59.879 18.4387 60.803L21.5901 57.8L24.7431 60.8C25.8876 59.8775 26.2057 58.6535 26.2057 58.6535C40.5382 55.607 40.7392 41.7185 40.7392 41.7185C42.1957 40.5305 42.6231 39.542 42.5886 38.759C42.5691 38.099 42.0787 37.454 41.3601 36.857ZM6.88715 39.8C10.4302 39.9815 12.1627 42.0095 15.2901 45.8C16.4887 47.2535 18.3787 47.045 18.3787 47.045L18.4387 51.8C8.46365 51.8 6.88715 39.8 6.88715 39.8ZM21.5901 43.043L17.1351 38.801L20.2866 35.7995L17.1351 32.7995L20.2866 29.7995L17.1351 26.7995L21.5901 22.5575L26.0481 26.7995L22.8951 29.7995L26.0481 32.7995L22.8951 35.7995L26.0481 38.801L21.5901 43.043ZM24.7431 51.8L24.8046 47.045C24.8046 47.045 26.6946 47.2535 27.8932 45.8C31.0206 42.0095 32.7517 39.9815 36.2962 39.8C36.2962 39.8 34.7181 51.8 24.7431 51.8ZM20.5401 39.8H22.6402V37.8005H20.5401V39.8ZM20.5401 33.8H22.6402V31.799H20.5401V33.8ZM20.5401 27.8H22.6402V25.8005H20.5401V27.8Z" fill="white"/>
</g>
<defs>
<clipPath id="clip0_2_6">
<rect width="42" height="60" fill="red" transform="translate(0.590027 0.799988)"/>
</clipPath>
</defs>
</svg>

<?xml version="1.0"?>
<svg width="43" height="61" xmlns="http://www.w3.org/2000/svg" xmlns:svg="http://www.w3.org/2000/svg">
 <defs>
  <clipPath id="clip0_2_6">
   <rect fill="red" height="60" id="svg_1" transform="translate(0.590027 0.799988)" width="42"/>
  </clipPath>
 </defs>
 <g class="layer">
  <title>Layer 1</title>
  <g clip-path="url(#clip0_2_6)" id="svg_2">
   <path d="m41.36,36.86c-0.21,-0.15 -0.37,-0.22 -0.37,-0.22l0,-0.08c-2.17,-1.59 -5.75,-2.76 -5.75,-2.76c2.32,0 3.88,-0.84 5.26,-2c-0.08,-0.08 1.05,-1 1.05,-1c0.22,-12.38 -6.72,-19.12 -10.51,-22c-3.22,6.35 -5.25,13 -5.25,13c-0.33,-6.64 0.37,-12.11 1.05,-16c-1.27,-0.68 -2.93,-1.05 -3.44,-2.31c-0.51,-1.25 -1.79,-2.69 -1.79,-2.69l-0.02,0.02l-0.02,-0.02c0,0 -1.28,1.44 -1.79,2.69c-0.51,1.26 -2.16,1.63 -3.44,2.31c0.69,3.89 1.38,9.36 1.05,16c0,0 -2.02,-6.65 -5.25,-13c-3.79,2.88 -10.72,9.62 -10.5,22c0,0 1.12,0.92 1.05,1c1.37,1.16 2.94,2 5.25,2c0,0 -3.58,1.17 -5.75,2.77l0,0.07c0,0 -0.16,0.08 -0.37,0.22c-0.72,0.59 -1.21,1.24 -1.23,1.9c-0.03,0.78 0.4,1.77 1.85,2.96c0,0 0.21,13.89 14.54,16.94c0,0 0.31,1.22 1.46,2.14l3.15,-3l3.15,3c1.15,-0.92 1.47,-2.15 1.47,-2.15c14.33,-3.04 14.53,-16.93 14.53,-16.93c1.46,-1.19 1.88,-2.18 1.85,-2.96c-0.02,-0.66 -0.51,-1.31 -1.23,-1.9zm-34.47,2.94c3.54,0.18 5.27,2.21 8.4,6c1.2,1.45 3.09,1.25 3.09,1.25l0.06,4.75c-9.98,0 -11.55,-12 -11.55,-12zm14.7,3.24l-4.45,-4.24l3.15,-3l-3.15,-3l3.15,-3l-3.15,-3l4.45,-4.24l4.46,4.24l-3.15,3l3.15,3l-3.15,3l3.15,3l-4.46,4.24zm3.15,8.76l0.06,-4.75c0,0 1.89,0.2 3.09,-1.25c3.13,-3.79 4.86,-5.82 8.41,-6c0,0 -1.58,12 -11.56,12zm-4.2,-12l2.1,0l0,-2l-2.1,0l0,2zm0,-6l2.1,0l0,-2l-2.1,0l0,2zm0,-6l2.1,0l0,-2l-2.1,0l0,2z" fill="#007f7f" id="svg_3"/>
  </g>
 </g>
</svg>
